X:20
T:Cercle Desponges
C:Trad. ?
Z:Galouvielle - Michel Bellon - Novembre 2004 - galouvielle@free.fr
S:Mireille Halary
M:6/8
L:1/8
K:D
f/g/ | afd gec | d2d dcB | AGF EFG | FEF Dfg | afd gec | d2d dcB | edc BAG | AA2 A2 :|
A | AFA AFA | B2B BAB | c2c cBA | d2d d2A | d2d dcd | e2e efg | afd gec | d2d d2 "Fin"||
 A | "Promenade" AGF G2G | GFE F2A | AGF B2A | AGF E2A | AGF G2G | GFE F2A | ABc dgf | edc d2 "Fin" |]

%%footer $D   Galouvielle-MBe 2006 \nTarantella (Italy)
